X: 219
T: Donegal Lass
C:Brian Finnegan
M:6/8
R:Jig
L:1/8
K:D
"A"Ace aed|cdB A3|"G"GBd G3 |"D"FAd F3|
"A"Ace aed|cdB A2a|aed cdB|ABG A3:|
"G"GBd G3|"D"FAd f3|"A"e2e ecA|ecA dBA|
"G"GBd G3|"D"FAd f2a|"A"aed cdB|ABG A3:|


